assets/img/logo_white.svg

<?xml version="1.0" encoding="UTF-8"?>
<svg width="626px" height="155px" viewBox="0 0 626 155" version="1.1" xmlns="http://www.w3.org/2000/svg" xmlns:xlink="http://www.w3.org/1999/xlink">
    <!-- Generator: Sketch 47.1 (45422) - http://www.bohemiancoding.com/sketch -->
    <title>Logo</title>
    <desc>Created with Sketch.</desc>
    <defs></defs>
    <g id="1" stroke="none" stroke-width="1" fill="none" fill-rule="evenodd">
        <g id="Real-DesktopHD" transform="translate(-328.000000, -378.000000)">
            <g id="Main">
                <g id="Logo-+-Date" transform="translate(328.000000, 378.000000)">
                    <g id="Logo">
                        <path d="M506.215333,154.255629 L474.224416,154.255629 L474.224416,152.245826 L492.478705,130.919588 C495.466008,127.3714 497.688088,124.22026 499.14501,121.466072 C500.601932,118.711885 501.330383,116.181048 501.330383,113.873485 C501.330383,109.903485 500.191796,106.820578 497.91459,104.624672 C495.637384,102.428765 492.429754,101.330829 488.291605,101.330829 C485.794023,101.330829 483.516851,101.938726 481.46002,103.154538 C479.403188,104.370351 477.793252,106.051373 476.630163,108.197654 C475.467073,110.343935 474.885537,112.732103 474.885537,115.362228 L472.902174,115.362228 C472.902174,112.459165 473.563288,109.767049 474.885537,107.285799 C476.207786,104.804549 478.044215,102.856797 480.39488,101.442484 C482.745545,100.028172 485.37776,99.321026 488.291605,99.321026 C493.041906,99.321026 496.73925,100.598851 499.383748,103.154538 C502.028246,105.710226 503.350475,109.283172 503.350475,113.873485 C503.350475,118.09161 501.012088,123.140879 496.335245,129.021441 L492.992911,133.152702 L476.832172,152.245826 L506.215333,152.245826 L506.215333,154.255629 Z M523.918688,132.482768 L523.84523,132.557205 L518.078785,137.581711 L518.078785,154.255629 L516.095421,154.255629 L516.095421,97.0879121 L518.078785,97.0879121 L518.078785,135.385816 L522.743361,130.919588 L540.814006,113.985141 L543.642135,113.985141 L525.387846,131.1429 L544.780732,154.255629 L542.209706,154.255629 L523.918688,132.482768 Z M569.572775,154.255629 L567.589412,154.255629 L567.589412,102.59626 L552.23671,108.439575 L552.23671,106.243679 L569.168756,99.9165231 L569.572775,99.9165231 L569.572775,154.255629 Z M622.756297,113.836267 C622.756297,116.863392 621.831961,119.512086 619.983261,121.78243 C618.134561,124.052774 615.741082,125.634547 612.802751,126.527797 C616.304262,127.470672 619.095634,129.182709 621.176952,131.663959 C623.25827,134.14521 624.298913,136.973792 624.298913,140.149792 C624.298913,144.740105 622.750191,148.362676 619.652701,151.017613 C616.55521,153.672551 612.435487,155 607.293408,155 C602.053385,155 597.896934,153.672551 594.823929,151.017613 C591.750925,148.362676 590.214446,144.740105 590.214446,140.149792 C590.214446,136.94898 591.224482,134.114194 593.244584,131.64535 C595.264687,129.176506 598.025452,127.470672 601.526963,126.527797 C598.588632,125.634547 596.219638,124.052774 594.419911,121.78243 C592.620183,119.512086 591.720333,116.863392 591.720333,113.836267 C591.720333,109.370016 593.134383,105.834288 595.962527,103.228975 C598.79067,100.623663 602.518622,99.321026 607.146493,99.321026 C611.79885,99.321026 615.56353,100.648475 618.440645,103.303413 C621.317761,105.95835 622.756297,109.469266 622.756297,113.836267 Z M622.278821,140.335885 C622.278821,136.61401 620.870892,133.549712 618.054991,131.1429 C615.239091,128.736087 611.627447,127.532699 607.21995,127.532699 C602.787968,127.532699 599.176324,128.729884 596.38491,131.12429 C593.593495,133.518697 592.197809,136.589198 592.197809,140.335885 C592.197809,144.15701 593.562888,147.221308 596.293087,149.528871 C599.023286,151.836433 602.690023,152.990197 607.293408,152.990197 C611.798849,152.990197 615.422736,151.83023 618.165178,149.510262 C620.90762,147.190293 622.278821,144.132198 622.278821,140.335885 Z M620.772934,113.650174 C620.772934,110.126799 619.462947,107.192764 616.842936,104.847983 C614.222924,102.503202 610.990809,101.330829 607.146493,101.330829 C603.204232,101.330829 599.978238,102.45978 597.468414,104.717718 C594.95859,106.975656 593.703696,109.953111 593.703696,113.650174 C593.703696,117.173549 594.952468,120.033147 597.450049,122.229053 C599.947631,124.424959 603.204232,125.522896 607.21995,125.522896 C611.186697,125.522896 614.437177,124.412553 616.971487,122.191835 C619.505798,119.971116 620.772934,117.123924 620.772934,113.650174 Z" id="2k18" fill="#FFFFFF"></path>
                        <path d="M367.682279,97.9379121 L340.593813,124.560695 L367.674478,124.560695 L396.958222,152.446703 L419.886427,152.446703 L443.768916,126.250514 L416.536693,126.105627 L390.427394,97.9379121 L367.682279,97.9379121 Z" id="Rectangle-4" stroke="#FFFFFF" stroke-width="1.7"></path>
                        <path d="M19.3716122,149.163704 L21.8341891,140.146251 L34.6694385,97.8393665 L36.9081448,97.8393665 L49.6687707,140.146251 L52.0940358,149.163704 L54.6312363,140.146251 L65.8247678,97.8393665 L68.0261623,97.8393665 L53.3999478,152.545249 L51.1239298,152.545249 L37.6543802,106.931965 L35.7514799,101.145766 L33.9232031,106.931965 L20.3417182,152.545249 L18.0657001,152.545249 L3.40217391,97.8393665 L5.64088021,97.8393665 L16.9090352,140.146251 L19.3716122,149.163704 Z M107.054275,125.417744 L79.8166821,125.417744 L79.8166821,150.516322 L110.860076,150.516322 L110.860076,152.545249 L77.8018465,152.545249 L77.8018465,97.8393665 L110.860076,97.8393665 L110.860076,99.8682935 L79.8166821,99.8682935 L79.8166821,123.388817 L107.054275,123.388817 L107.054275,125.417744 Z M150.559801,125.417744 L123.322208,125.417744 L123.322208,150.516322 L154.365602,150.516322 L154.365602,152.545249 L121.307372,152.545249 L121.307372,97.8393665 L154.365602,97.8393665 L154.365602,99.8682935 L123.322208,99.8682935 L123.322208,123.388817 L150.559801,123.388817 L150.559801,125.417744 Z M175.521376,123.764544 L166.827733,131.842679 L166.827733,152.545249 L164.812898,152.545249 L164.812898,97.8393665 L166.827733,97.8393665 L166.827733,129.475598 L175.782559,120.646008 L198.318869,97.8393665 L201.229187,97.8393665 L177.013847,122.374354 L203.094775,152.545249 L200.482951,152.545249 L175.521376,123.764544 Z M264.136834,139.432369 C264.136834,137.102849 263.595818,135.130301 262.513772,133.514665 C261.431725,131.89903 259.727838,130.471281 257.402059,129.231375 C255.07628,127.991469 251.56279,126.720272 246.861484,125.417744 C242.160177,124.115216 238.63425,122.800184 236.283596,121.472608 C233.932943,120.145032 232.2104,118.604566 231.115916,116.851164 C230.021432,115.097761 229.474198,112.968662 229.474198,110.463801 C229.474198,106.481073 231.140774,103.256113 234.473975,100.788825 C237.807177,98.3215374 242.147736,97.0879121 247.495784,97.0879121 C250.978233,97.0879121 254.106172,97.7704764 256.879694,99.1356254 C259.653216,100.500774 261.798622,102.416964 263.315975,104.884252 C264.833328,107.351539 265.591993,110.138155 265.591993,113.244182 L263.577157,113.244182 C263.577157,109.161259 262.084701,105.78601 259.099745,103.118334 C256.114788,100.450657 252.24684,99.116839 247.495784,99.116839 C242.719853,99.116839 238.858123,100.187651 235.910479,102.329307 C232.962834,104.470963 231.489034,107.157385 231.489034,110.388655 C231.489034,113.670023 232.770058,116.312611 235.332146,118.3165 C237.894234,120.320388 242.122859,122.09255 248.018148,123.63304 C253.913438,125.173529 258.229123,126.958215 260.965333,128.987153 C264.447783,131.567159 266.188981,135.023815 266.188981,139.357224 C266.188981,142.11257 265.417879,144.548511 263.875651,146.665118 C262.333424,148.781725 260.144488,150.416122 257.30878,151.568358 C254.473071,152.720594 251.289165,153.296703 247.756966,153.296703 C243.826773,153.296703 240.294627,152.639187 237.160423,151.324135 C234.026218,150.009084 231.669382,148.136728 230.089842,145.707014 C228.510303,143.277299 227.720545,140.409276 227.720545,137.10286 L229.73538,137.10286 C229.73538,141.586561 231.401956,145.068265 234.735158,147.548077 C238.068359,150.027889 242.408919,151.267776 247.756966,151.267776 C252.508022,151.267776 256.425719,150.171916 259.510174,147.980163 C262.594629,145.78841 264.136834,142.939174 264.136834,139.432369 Z M278.80036,129.438025 L278.80036,152.545249 L276.785524,152.545249 L276.785524,97.8393665 L293.76238,97.8393665 C299.309425,97.8393665 303.618891,99.2483295 306.690909,102.066298 C309.762927,104.884266 311.298913,108.798052 311.298913,113.807773 C311.298913,118.767397 309.800239,122.599776 306.802845,125.305026 C303.805451,128.010275 299.545733,129.387928 294.023563,129.438025 L278.80036,129.438025 Z M278.80036,127.409098 L293.76238,127.409098 C298.662684,127.409098 302.474665,126.219307 305.198438,123.83969 C307.922211,121.460072 309.284077,118.141182 309.284077,113.882919 C309.284077,109.474364 307.922211,106.036494 305.198438,103.569207 C302.474665,101.101919 298.662684,99.8682935 293.76238,99.8682935 L278.80036,99.8682935 L278.80036,127.409098 Z" id="WEEK-SP" fill="#FFFFFF"></path>
                        <path d="M48.7467731,47.6923077 L18.6587976,47.6923077 L18.6587976,78.5645604 L0,78.5645604 L0,1.06456044 L51.7768342,1.06456044 L51.7768342,15.4893544 L18.6587976,15.4893544 L18.6587976,33.3207418 L48.7467731,33.3207418 L48.7467731,47.6923077 Z M93.7405232,51.2053571 L83.6403194,51.2053571 L83.6403194,78.5645604 L64.9815218,78.5645604 L64.9815218,1.06456044 L95.4416101,1.06456044 C104.620438,1.06456044 111.796827,3.10494754 116.970992,7.18578297 C122.145157,11.2666184 124.732201,17.0329298 124.732201,24.4848901 C124.732201,29.87869 123.642453,34.3497991 121.462925,37.8983516 C119.283396,41.4469042 115.872396,44.3211886 111.229823,46.5212912 L127.39015,77.7661401 L127.39015,78.5645604 L107.402378,78.5645604 L93.7405232,51.2053571 Z M83.6403194,36.7805632 L95.4416101,36.7805632 C98.985559,36.7805632 101.652341,35.8490821 103.442035,33.986092 C105.231729,32.1231019 106.126563,29.5238262 106.126563,26.1881868 C106.126563,22.8525474 105.222869,20.2355292 103.415455,18.3370536 C101.608041,16.438578 98.9501195,15.4893544 95.4416101,15.4893544 L83.6403194,15.4893544 L83.6403194,36.7805632 Z M206.990387,41.4114011 C206.990387,48.969818 205.590549,55.6587392 202.790829,61.4783654 C199.991109,67.2979916 196.013086,71.7779719 190.856641,74.9184409 C185.700195,78.0589099 179.826188,79.6291209 173.234443,79.6291209 C166.642698,79.6291209 160.79527,78.1121374 155.691984,75.078125 C150.588697,72.0441126 146.610675,67.7060722 143.757796,62.0638736 C140.904917,56.4216751 139.407621,49.9456638 139.265863,42.6356456 L139.265863,38.2709478 C139.265863,30.6770454 140.656842,23.9792529 143.438842,18.1773695 C146.220842,12.3754861 150.207724,7.89550572 155.39961,4.73729396 C160.591495,1.57908219 166.500941,0 173.128125,0 C179.684431,0 185.531859,1.5613397 190.670584,4.68406593 C195.80931,7.80679217 199.805053,12.2512876 202.657932,18.0176854 C205.51081,23.7840833 206.954948,30.3931633 206.990387,37.8451236 L206.990387,41.4114011 Z M188.012636,38.1644918 C188.012636,30.4641327 186.727974,24.6179801 184.158611,20.6258585 C181.589248,16.6337369 177.912456,14.637706 173.128125,14.637706 C163.7721,14.637706 158.828366,21.6637347 158.296773,35.7160027 L158.243614,41.4114011 C158.243614,49.0053035 159.501697,54.8425849 162.017901,58.9234203 C164.534105,63.0042558 168.272915,65.0446429 173.234443,65.0446429 C177.947895,65.0446429 181.580388,63.0397407 184.132031,59.0298764 C186.683675,55.020012 187.977197,49.2537006 188.012636,41.7307692 L188.012636,38.1644918 Z M286.696943,78.5645604 L268.144464,78.5645604 L240.714436,30.3399725 L240.714436,78.5645604 L222.055639,78.5645604 L222.055639,1.06456044 L240.714436,1.06456044 L268.091305,49.2891484 L268.091305,1.06456044 L286.696943,1.06456044 L286.696943,78.5645604 Z M363.160802,15.4893544 L339.930333,15.4893544 L339.930333,78.5645604 L321.271536,78.5645604 L321.271536,15.4893544 L298.466339,15.4893544 L298.466339,1.06456044 L363.160802,1.06456044 L363.160802,15.4893544 Z M396.193784,52.1102335 L364.245245,52.1102335 L364.245245,38.2177198 L396.193784,38.2177198 L396.193784,52.1102335 Z M464.418003,45.7228709 L435.074253,45.7228709 L435.074253,64.1929945 L469.7339,64.1929945 L469.7339,78.5645604 L416.415456,78.5645604 L416.415456,1.06456044 L469.840218,1.06456044 L469.840218,15.4893544 L435.074253,15.4893544 L435.074253,31.8303571 L464.418003,31.8303571 L464.418003,45.7228709 Z M547.420415,78.5645604 L528.867935,78.5645604 L501.437908,30.3399725 L501.437908,78.5645604 L482.779111,78.5645604 L482.779111,1.06456044 L501.437908,1.06456044 L528.814776,49.2891484 L528.814776,1.06456044 L547.420415,1.06456044 L547.420415,78.5645604 Z M564.665184,78.5645604 L564.665184,1.06456044 L589.59674,1.06456044 C596.436561,1.06456044 602.58522,2.61702889 608.042901,5.72201236 C613.500583,8.82699584 617.762117,13.2093925 620.827633,18.8693338 C623.893149,24.5292751 625.443603,30.8722176 625.479043,37.8983516 L625.479043,41.4646291 C625.479043,48.5617342 623.981747,54.9224192 620.98711,60.546875 C617.992473,66.1713308 613.775237,70.5714699 608.335276,73.7474245 C602.895314,76.923379 596.826393,78.5290749 590.128329,78.5645604 L564.665184,78.5645604 Z M583.323982,15.4893544 L583.323982,64.1929945 L589.809376,64.1929945 C595.160738,64.1929945 599.271657,62.2856761 602.142256,58.4709821 C605.012855,54.6562882 606.448132,48.9875605 606.448132,41.4646291 L606.448132,38.1112637 C606.448132,30.6238179 605.012855,24.981704 602.142256,21.1847527 C599.271657,17.3878015 595.089861,15.4893544 589.59674,15.4893544 L583.323982,15.4893544 Z" id="FRONT-END" fill="#FFFFFF"></path>
                    </g>
                </g>
            </g>
        </g>
    </g>
</svg>

<svg width="626" height="155" xmlns="http://www.w3.org/2000/svg"><g fill="none" fill-rule="evenodd"><path d="M506.215 154.256h-31.99v-2.01l18.254-21.326c2.987-3.549 5.21-6.7 6.666-9.454 1.457-2.754 2.185-5.285 2.185-7.593 0-3.97-1.138-7.052-3.415-9.248-2.278-2.196-5.485-3.294-9.623-3.294-2.498 0-4.775.608-6.832 1.824-2.057 1.215-3.667 2.896-4.83 5.043-1.163 2.146-1.744 4.534-1.744 7.164h-1.984c0-2.903.661-5.595 1.984-8.076 1.322-2.481 3.158-4.43 5.509-5.844 2.35-1.414 4.983-2.121 7.897-2.121 4.75 0 8.447 1.278 11.092 3.834 2.644 2.555 3.966 6.128 3.966 10.718 0 4.219-2.338 9.268-7.015 15.148l-3.342 4.132-16.16 19.093h29.382v2.01zm17.704-21.773l-.074.074-5.766 5.025v16.674h-1.984V97.088h1.984v38.298l4.664-4.466 18.071-16.935h2.828l-18.254 17.158 19.393 23.113h-2.571l-18.291-21.773zm45.654 21.773h-1.984v-51.66l-15.352 5.844v-2.196l16.932-6.327h.404v54.339zm53.183-40.42c0 3.027-.924 5.676-2.773 7.946-1.848 2.27-4.242 3.853-7.18 4.746 3.501.943 6.293 2.655 8.374 5.136 2.081 2.481 3.122 5.31 3.122 8.486 0 4.59-1.549 8.213-4.646 10.868-3.098 2.655-7.218 3.982-12.36 3.982-5.24 0-9.396-1.327-12.47-3.982-3.072-2.655-4.609-6.278-4.609-10.868 0-3.201 1.01-6.036 3.03-8.505 2.02-2.468 4.781-4.174 8.283-5.117-2.938-.893-5.307-2.475-7.107-4.746-1.8-2.27-2.7-4.919-2.7-7.946 0-4.466 1.414-8.002 4.243-10.607 2.828-2.605 6.556-3.908 11.183-3.908 4.653 0 8.418 1.327 11.295 3.982 2.877 2.655 4.315 6.166 4.315 10.533zm-.477 26.5c0-3.722-1.408-6.786-4.224-9.193-2.816-2.407-6.428-3.61-10.835-3.61-4.432 0-8.044 1.197-10.835 3.591-2.792 2.395-4.187 5.465-4.187 9.212 0 3.821 1.365 6.885 4.095 9.193 2.73 2.307 6.397 3.461 11 3.461 4.506 0 8.13-1.16 10.872-3.48 2.743-2.32 4.114-5.378 4.114-9.174zm-1.506-26.686c0-3.523-1.31-6.457-3.93-8.802-2.62-2.345-5.852-3.517-9.697-3.517-3.942 0-7.168 1.129-9.678 3.387-2.51 2.258-3.764 5.235-3.764 8.932 0 3.524 1.248 6.383 3.746 8.58 2.498 2.195 5.754 3.293 9.77 3.293 3.967 0 7.217-1.11 9.751-3.331 2.535-2.22 3.802-5.068 3.802-8.542z" fill="#FFF"/><path d="M367.682 97.938l-27.088 26.623h27.08l29.284 27.886h22.928l23.883-26.196-27.232-.145-26.11-28.168h-22.745z" stroke="#FFF" stroke-width="1.7"/><path d="M19.372 149.164l2.462-9.018L34.67 97.84h2.24l12.76 42.307 2.425 9.018 2.537-9.018L65.825 97.84h2.201L53.4 152.545h-2.276l-13.47-45.613-1.903-5.786-1.828 5.786-13.581 45.613h-2.276L3.402 97.84h2.239l11.268 42.307 2.463 9.018zm87.682-23.746H79.817v25.098h31.043v2.03H77.802V97.838h33.058v2.03H79.817v23.52h27.237v2.029zm43.506 0h-27.238v25.098h31.044v2.03h-33.059V97.838h33.059v2.03h-31.044v23.52h27.238v2.029zm24.961-1.653l-8.693 8.078v20.702h-2.015V97.84h2.015v31.637l8.955-8.83 22.536-22.807h2.91l-24.215 24.535 26.08 30.171h-2.611l-24.962-28.78zm88.616 15.667c0-2.33-.541-4.302-1.623-5.917-1.082-1.616-2.786-3.044-5.112-4.284-2.326-1.24-5.84-2.51-10.54-3.813-4.702-1.303-8.228-2.618-10.578-3.945-2.351-1.328-4.074-2.868-5.168-4.622-1.095-1.753-1.642-3.882-1.642-6.387 0-3.983 1.667-7.208 5-9.675 3.333-2.467 7.674-3.701 13.022-3.701 3.482 0 6.61.682 9.384 2.048 2.773 1.365 4.919 3.281 6.436 5.748 1.517 2.468 2.276 5.254 2.276 8.36h-2.015c0-4.083-1.492-7.458-4.477-10.126-2.985-2.667-6.853-4.001-11.604-4.001-4.776 0-8.638 1.07-11.586 3.212-2.947 2.142-4.421 4.828-4.421 8.06 0 3.281 1.281 5.924 3.843 7.928 2.562 2.003 6.79 3.776 12.686 5.316 5.895 1.54 10.211 3.325 12.947 5.354 3.483 2.58 5.224 6.037 5.224 10.37 0 2.756-.771 5.192-2.313 7.308-1.543 2.117-3.732 3.751-6.567 4.903-2.836 1.153-6.02 1.729-9.552 1.729-3.93 0-7.462-.658-10.597-1.973-3.134-1.315-5.49-3.187-7.07-5.617s-2.37-5.298-2.37-8.604h2.015c0 4.484 1.667 7.965 5 10.445 3.333 2.48 7.674 3.72 13.022 3.72 4.751 0 8.669-1.096 11.753-3.288 3.085-2.192 4.627-5.04 4.627-8.548zm14.663-9.994v23.107h-2.014V97.84h16.976c5.547 0 9.857 1.41 12.929 4.227 3.072 2.818 4.608 6.732 4.608 11.742 0 4.96-1.499 8.792-4.496 11.497-2.998 2.705-7.257 4.083-12.78 4.133H278.8zm0-2.029h14.962c4.9 0 8.713-1.19 11.436-3.57 2.724-2.379 4.086-5.698 4.086-9.956 0-4.409-1.362-7.847-4.086-10.314-2.723-2.467-6.535-3.7-11.436-3.7H278.8v27.54zM48.747 47.692H18.659v30.873H0v-77.5h51.777v14.424H18.659v17.832h30.088v14.371zm44.994 3.513h-10.1v27.36H64.98v-77.5h30.46c9.18 0 16.356 2.04 21.53 6.12 5.174 4.082 7.761 9.848 7.761 17.3 0 5.394-1.09 9.865-3.27 13.413-2.179 3.549-5.59 6.423-10.232 8.623l16.16 31.245v.799h-19.988L93.74 51.205zm-10.1-14.424h11.8c3.545 0 6.211-.932 8.001-2.795 1.79-1.863 2.685-4.462 2.685-7.798 0-3.335-.904-5.952-2.712-7.85-1.807-1.9-4.465-2.849-7.973-2.849H83.64v21.292zm123.35 4.63c0 7.559-1.4 14.248-4.2 20.067-2.8 5.82-6.778 10.3-11.934 13.44-5.157 3.14-11.03 4.711-17.623 4.711-6.591 0-12.439-1.517-17.542-4.55-5.103-3.035-9.081-7.373-11.934-13.015-2.853-5.642-4.35-12.118-4.492-19.428V38.27c0-7.594 1.39-14.292 4.173-20.094 2.782-5.802 6.769-10.281 11.96-13.44C160.592 1.58 166.502 0 173.13 0c6.555 0 12.403 1.561 17.542 4.684 5.138 3.123 9.134 7.567 11.987 13.334 2.853 5.766 4.297 12.375 4.332 19.827v3.566zm-18.978-3.247c0-7.7-1.285-13.546-3.854-17.538-2.57-3.992-6.247-5.988-11.03-5.988-9.357 0-14.3 7.026-14.832 21.078l-.053 5.695c0 7.594 1.258 13.432 3.774 17.512 2.516 4.081 6.255 6.122 11.216 6.122 4.714 0 8.346-2.005 10.898-6.015 2.552-4.01 3.845-9.776 3.88-17.3v-3.566zm98.684 40.4h-18.553l-27.43-48.224v48.225h-18.658v-77.5h18.658l27.377 48.224V1.065h18.606v77.5zM363.16 15.49h-23.23v63.076h-18.66V15.489h-22.805V1.065h64.695v14.424zm33.033 36.621h-31.949V38.218h31.949V52.11zm68.224-6.387h-29.344v18.47h34.66v14.372h-53.319v-77.5h53.425V15.49h-34.766v16.34h29.344v13.893zm83.002 32.842h-18.552l-27.43-48.225v48.225h-18.659v-77.5h18.659l27.377 48.224V1.065h18.605v77.5zm17.245 0v-77.5h24.932c6.84 0 12.988 1.552 18.446 4.657 5.458 3.105 9.72 7.487 12.785 13.147 3.065 5.66 4.616 12.003 4.651 19.03v3.566c0 7.097-1.497 13.457-4.492 19.082-2.995 5.624-7.212 10.024-12.652 13.2-5.44 3.176-11.509 4.782-18.207 4.818h-25.463zm18.659-63.076v48.704h6.485c5.352 0 9.463-1.907 12.333-5.722 2.87-3.815 4.306-9.483 4.306-17.006V38.11c0-7.487-1.435-13.13-4.306-16.926-2.87-3.797-7.052-5.696-12.545-5.696h-6.273z" fill="#FFF"/></g></svg>
